!!!OTL: GROSSER GOTT WIR LOBEN DICH
!!!ARE: Europa, Mitteleuropa, Deutschland
!!!SCT: B0738A
!!!YEM: Copyright 1995, estate of Helmut Schaffrath.
**kern
*ICvox
*Ivox
*M3/4
*k[f#]
*G:
=1
{2g
4g
=2
4g
4f#
4g
=3
4a
4g
4a
=4
2.g}
=5
{2b
4b
=6
4b
4cc
4dd
=7
4dd
4cc
4b
=8
4b
4a
4r}
=9
{2g
4g
=10
4g
4f#
4g
=11
4a
4g
4a
=12
2.g}
=13
{2b
4b
=14
4b
4cc
4dd
=15
4dd
4cc
4b
=16
4b
4a
4r}
=17
{4a
4b
4cc
=18
4cc
4b
4a
=19
2b
4cc
=20
2.dd}
=21
{2ee
4ee
=22
4dd
4cc
4b
=23
4cc
4b
4a
=24
2.g}
==
!!!AGN: Lob -, Dank - Lied, religioes
!!!ONB: ESAC (Essen Associative Code) Database: BOEHME
!!!AMT: simple triple
!!!AIN: vox
!!!EED: Helmut Schaffrath
!!!EEV: 1.0
*-
